svgs/duotone/file-lines.svg

<svg xmlns="http://www.w3.org/2000/svg" viewBox="0 0 384 512"><!--! Font Awesome Pro 6.6.0 by @fontawesome - https://fontawesome.com License - https://fontawesome.com/license (Commercial License) Copyright 2024 Fonticons, Inc. --><path class="fa-secondary" style="fill:var(--fa-secondary-color,inherit);opacity:var(--fa-secondary-opacity,.4);" d="M0 64C0 28.7 28.7 0 64 0L224 0l0 128c0 17.7 14.3 32 32 32l128 0 0 288c0 35.3-28.7 64-64 64L64 512c-35.3 0-64-28.7-64-64L0 64zM96 272c0 8.8 7.2 16 16 16l160 0c8.8 0 16-7.2 16-16s-7.2-16-16-16l-160 0c-8.8 0-16 7.2-16 16zm0 64c0 8.8 7.2 16 16 16l160 0c8.8 0 16-7.2 16-16s-7.2-16-16-16l-160 0c-8.8 0-16 7.2-16 16zm0 64c0 8.8 7.2 16 16 16l160 0c8.8 0 16-7.2 16-16s-7.2-16-16-16l-160 0c-8.8 0-16 7.2-16 16z"/><path class="fa-primary" style="fill:var(--fa-primary-color,inherit);opacity:var(--fa-primary-opacity,1);" d="M384 160L224 0l0 128c0 17.7 14.3 32 32 32l128 0zM112 256c-8.8 0-16 7.2-16 16s7.2 16 16 16l160 0c8.8 0 16-7.2 16-16s-7.2-16-16-16l-160 0zm0 64c-8.8 0-16 7.2-16 16s7.2 16 16 16l160 0c8.8 0 16-7.2 16-16s-7.2-16-16-16l-160 0zm0 64c-8.8 0-16 7.2-16 16s7.2 16 16 16l160 0c8.8 0 16-7.2 16-16s-7.2-16-16-16l-160 0z"/></svg>

<svg xmlns="http://www.w3.org/2000/svg" viewBox="0 0 384 512"><!--! Font Awesome Pro 6.4.2 by @fontawesome - https://fontawesome.com License - https://fontawesome.com/license (Commercial License) Copyright 2023 Fonticons, Inc. --><path class="fa-primary" style="fill:var(--fa-primary-color,inherit);opacity:var(--fa-primary-opacity,1);" d="M384 160L224 0V128c0 17.7 14.3 32 32 32H384zM112 256c-8.8 0-16 7.2-16 16s7.2 16 16 16H272c8.8 0 16-7.2 16-16s-7.2-16-16-16H112zm0 64c-8.8 0-16 7.2-16 16s7.2 16 16 16H272c8.8 0 16-7.2 16-16s-7.2-16-16-16H112zm0 64c-8.8 0-16 7.2-16 16s7.2 16 16 16H272c8.8 0 16-7.2 16-16s-7.2-16-16-16H112z"/><path class="fa-secondary" style="fill:var(--fa-secondary-color,inherit);opacity:var(--fa-secondary-opacity,.4);" d="M0 64C0 28.7 28.7 0 64 0H224V128c0 17.7 14.3 32 32 32H384V448c0 35.3-28.7 64-64 64H64c-35.3 0-64-28.7-64-64V64zM112 256c-8.8 0-16 7.2-16 16s7.2 16 16 16H272c8.8 0 16-7.2 16-16s-7.2-16-16-16H112zm0 64c-8.8 0-16 7.2-16 16s7.2 16 16 16H272c8.8 0 16-7.2 16-16s-7.2-16-16-16H112zm0 64c-8.8 0-16 7.2-16 16s7.2 16 16 16H272c8.8 0 16-7.2 16-16s-7.2-16-16-16H112z"/></svg>
